icons/job/tank/WAR.svg

<svg viewBox="0 0 12.7 12.7" xmlns="http://www.w3.org/2000/svg">
  <g>
    <path d="M 3.8774316,2.5671956 C 3.3757198,2.5749823 2.3299878,3.3738549 1.8748291,4.7253063 1.5267558,5.7588026 1.3564482,7.2307994 2.2548262,8.7279219 2.4108128,8.987871 2.9256671,9.6145073 3.1579659,9.7983526 3.910688,10.394067 4.3872121,10.135431 4.5483189,9.4838925 4.8721261,8.1743764 5.479065,8.0084566 6.3500007,8.0084566 c 0.8709347,0 1.4778735,0.1659198 1.8016809,1.4754359 0.1611069,0.6515385 0.6376302,0.9101745 1.390353,0.3144601 C 9.7743336,9.6145073 10.289187,8.987871 10.445175,8.7279219 11.343552,7.2307994 11.173245,5.7588026 10.825171,4.7253063 10.370013,3.3738549 9.3242809,2.5749663 8.8225691,2.5671956 8.5237498,2.5627591 8.2932964,2.7998183 8.212331,3.1846192 7.9553995,4.4057565 7.3197158,4.7523227 6.3500007,4.7523227 5.3802847,4.7523227 4.744602,4.4057565 4.4876694,3.1846192 4.4067045,2.7998183 4.176251,2.5625679 3.8774316,2.5671956 Z M 3.5460117,4.1653692 c 0.083759,-9.42e-5 0.1801324,0.096733 0.2943397,0.3728087 0.2828634,0.6490741 1.1444215,1.3138944 2.5096493,1.3138944 1.3652273,0 2.226784,-0.6648203 2.5096481,-1.3138944 C 9.1206939,3.9071496 9.288546,4.2118372 9.4256212,4.4726407 10.018719,5.6011086 10.090368,7.1616855 9.4974765,8.0975636 9.2041959,8.5605098 9.0472873,8.799251 8.8283144,8.1751696 8.4927512,7.2188049 7.4459065,6.8680278 6.3499968,6.8701856 5.2540872,6.8680438 4.2072427,7.2188049 3.8716783,8.1751696 3.6527054,8.799251 3.4957972,8.5605098 3.2025159,8.0975636 2.6096289,7.1616855 2.6812772,5.6011086 3.2743728,4.4726407 3.3514758,4.32594 3.4383148,4.1654946 3.5460038,4.1653669 Z" />
  </g>
</svg>

<svg viewBox="0 0 12.7 12.7" xmlns="http://www.w3.org/2000/svg"><path d="M3.877 2.567c-.501.008-1.547.807-2.002 2.158-.348 1.034-.519 2.506.38 4.003.156.26.67.887.903 1.07.753.596 1.23.337 1.39-.314.324-1.31.931-1.476 1.802-1.476.87 0 1.478.166 1.802 1.476.16.651.637.91 1.39.314.232-.183.747-.81.903-1.07.899-1.497.728-2.97.38-4.003-.455-1.351-1.5-2.15-2.002-2.158-.3-.004-.53.233-.61.618-.258 1.22-.893 1.567-1.863 1.567s-1.605-.346-1.862-1.567c-.081-.385-.312-.622-.61-.618Zm-.331 1.598c.084 0 .18.097.294.373.283.65 1.145 1.314 2.51 1.314 1.365 0 2.227-.665 2.51-1.314.26-.63.429-.326.566-.065.593 1.128.664 2.689.071 3.625-.293.463-.45.701-.669.077C8.493 7.22 7.446 6.868 6.35 6.87c-1.096-.002-2.143.349-2.478 1.305-.22.624-.376.386-.67-.077-.592-.936-.52-2.497.072-3.625.077-.147.164-.308.272-.308Z"/></svg>
